src/pos-icons/glass-mug.svg

<svg height="24" viewBox="0 0 24 24" width="24" xmlns="http://www.w3.org/2000/svg"><path d="m10 4v3h8v-3zm-2-2h12 1v1l-1 1v16l1 1v1h-1-12-1v-1l1-1v-1.4l-3.8-1.77c-.7-.33-1.2-1.01-1.2-1.83v-7a2 2 0 0 1 2-2h3v-2l-1-1v-1zm-3 13 3 1.39v-8.39h-3z"/></svg>

<?xml version="1.0" encoding="UTF-8"?><!DOCTYPE svg PUBLIC "-//W3C//DTD SVG 1.1//EN" "http://www.w3.org/Graphics/SVG/1.1/DTD/svg11.dtd"><svg xmlns="http://www.w3.org/2000/svg" xmlns:xlink="http://www.w3.org/1999/xlink" version="1.1" id="mdi-glass-mug" width="24" height="24" viewBox="0 0 24 24"><path d="M10,4V7H18V4H10M8,2H20L21,2V3L20,4V20L21,21V22H20L8,22H7V21L8,20V18.6L4.2,16.83C3.5,16.5 3,15.82 3,15V8A2,2 0 0,1 5,6H8V4L7,3V2H8M5,15L8,16.39V8H5V15Z" /></svg>
